symbols/web/layers_clear/materialsymbolsoutlined/layers_clear_wght700_20px.svg

<svg xmlns="http://www.w3.org/2000/svg" height="20" width="20"><path d="m14.104 10.667-1.958-1.938 2.083-1.604-4.208-3.333-1.563 1.229-1.937-1.917L10 .396l8.646 6.729Zm3.188 3.166-1.938-1.916L16.542 11l2.208 1.708Zm-1.188 4.709L14 16.438l-4 3.083-8.729-6.771L3.5 11l6.5 5.062 2.062-1.583-1.229-1.25-.833.625-8.646-6.729 1.875-1.479L.833 3.229l1.459-1.458 15.291 15.291ZM10.312 6.875Z"/></svg>

<svg xmlns="http://www.w3.org/2000/svg" height="20" width="20"><path d="M14.104 10.667 12.146 8.729 14.229 7.125 10.021 3.792 8.458 5.021 6.521 3.104 10 0.396 18.646 7.125ZM17.292 13.833 15.354 11.917 16.542 11 18.75 12.708ZM16.104 18.542 14 16.438 10 19.521 1.271 12.75 3.5 11 10 16.062 12.062 14.479 10.833 13.229 10 13.854 1.354 7.125 3.229 5.646 0.833 3.229 2.292 1.771 17.583 17.062ZM10.312 6.875Z"/></svg>
